X:878
T:Auprs de ma blonde
R:Chanson
O:France
B:Le livre des Chansons (Henri Davenson) n52
Z:<anamnese@caramail.com> -- http://anamnese.fr.st
M:6/8
L:1/8
Q:1/4=140
K:G
B | B2 c B2 A | G3 G z G | d2 d e2 e | d3 z2 B |\
    B2 c B2 A | G3 G z G | d2 d e2 e | d3 z2 d |
e2 e e2 B | c3 c z c | d2 d d2 A | B3-B zz |\
G3 A B c | B3 d2 z | A2 c B2 A | G2 E D3 |!
G3 A B c | B3 d2 z | A2 c B2 A | G3 z2 ||
W:Au jardin de mon pre les lilas sont fleuris (2x)
W:Tous les oiseaux du monde y viennent faire leur nid.
W:Auprs de ma blonde qu'il fait bon, fait bon, fait bon
W:Auprs de ma blonde qu'il fait bon dormir.
